gama.ui.shared/icons_svg/dark/generic/menu.print.svg

<?xml version="1.0" encoding="UTF-8" standalone="no"?>
<!DOCTYPE svg PUBLIC "-//W3C//DTD SVG 1.1//EN" "http://www.w3.org/Graphics/SVG/1.1/DTD/svg11.dtd">
<svg xmlns="http://www.w3.org/2000/svg" xmlns:xl="http://www.w3.org/1999/xlink" version="1.1" xmlns:dc="http://purl.org/dc/elements/1.1/" viewBox="-490.7741 -3167.9315 25 25" width="25" height="25">
  <defs/>
  <g id="SOURCES" stroke-opacity="1" fill="none" stroke="none" fill-opacity="1" stroke-dasharray="none">
    <title>SOURCES</title>
    <g id="SOURCES_Dark">
      <title>Dark</title>
      <g id="Graphic_11289">
        <path d="M -486.4341 -3167.4315 L -470.1141 -3167.4315 C -467.9933 -3167.4315 -466.2741 -3165.7123 -466.2741 -3163.5915 L -466.2741 -3147.2715 C -466.2741 -3145.1507 -467.9933 -3143.4315 -470.1141 -3143.4315 L -486.4341 -3143.4315 C -488.5549 -3143.4315 -490.2741 -3145.1507 -490.2741 -3147.2715 L -490.2741 -3163.5915 C -490.2741 -3165.7123 -488.5549 -3167.4315 -486.4341 -3167.4315 Z" fill="#666"/>
        <path d="M -486.4341 -3167.4315 L -470.1141 -3167.4315 C -467.9933 -3167.4315 -466.2741 -3165.7123 -466.2741 -3163.5915 L -466.2741 -3147.2715 C -466.2741 -3145.1507 -467.9933 -3143.4315 -470.1141 -3143.4315 L -486.4341 -3143.4315 C -488.5549 -3143.4315 -490.2741 -3145.1507 -490.2741 -3147.2715 L -490.2741 -3163.5915 C -490.2741 -3165.7123 -488.5549 -3167.4315 -486.4341 -3167.4315 Z" stroke="white" stroke-linecap="round" stroke-linejoin="round" stroke-width=".25"/>
      </g>
      <g id="Graphic_11288">
        <path d="M -472.6741 -3150.6274 L -472.6741 -3148.6194 C -472.6741 -3148.3954 -472.8501 -3148.2194 -473.0741 -3148.2194 L -483.4741 -3148.2194 C -483.6981 -3148.2194 -483.8741 -3148.3954 -483.8741 -3148.6194 L -483.8741 -3150.6354 L -485.0741 -3150.6354 C -485.7381 -3150.6354 -486.2741 -3151.1714 -486.2741 -3151.8354 L -486.2741 -3155.8354 C -486.2741 -3156.9394 -485.3781 -3157.8354 -484.2741 -3157.8354 L -483.8741 -3157.8354 L -483.8741 -3162.2434 C -483.8741 -3162.4594 -483.6981 -3162.6434 -483.4741 -3162.6434 L -473.0741 -3162.6434 C -472.8501 -3162.6514 -472.6741 -3162.4754 -472.6741 -3162.2514 L -472.6741 -3157.8434 L -472.2741 -3157.8434 C -471.1701 -3157.8434 -470.2741 -3156.9474 -470.2741 -3155.8434 L -470.2741 -3151.8274 C -470.2741 -3151.1634 -470.8101 -3150.6274 -471.4741 -3150.6274 Z M -472.6741 -3151.4274 L -471.4741 -3151.4274 C -471.2501 -3151.4274 -471.0741 -3151.6034 -471.0741 -3151.8274 L -471.0741 -3155.8434 C -471.0741 -3156.5074 -471.6101 -3157.0434 -472.2741 -3157.0434 L -472.6741 -3157.0434 L -472.6741 -3154.2354 C -472.6741 -3154.0114 -472.8501 -3153.8354 -473.0741 -3153.8354 L -483.4741 -3153.8354 C -483.6981 -3153.8354 -483.8741 -3154.0114 -483.8741 -3154.2354 L -483.8741 -3157.0434 L -484.2741 -3157.0434 C -484.9381 -3157.0434 -485.4741 -3156.5074 -485.4741 -3155.8434 L -485.4741 -3151.8434 C -485.4741 -3151.6194 -485.2981 -3151.4434 -485.0741 -3151.4434 L -483.8741 -3151.4434 L -483.8741 -3152.6434 C -483.8741 -3152.8674 -483.6981 -3153.0434 -483.4741 -3153.0434 L -473.0741 -3153.0434 C -472.8501 -3153.0434 -472.6741 -3152.8674 -472.6741 -3152.6434 Z M -473.4741 -3157.4434 L -473.4741 -3161.8514 L -483.0741 -3161.8514 L -483.0741 -3154.6354 L -473.4741 -3154.6354 Z M -481.0741 -3159.4434 C -481.2981 -3159.4434 -481.4741 -3159.6194 -481.4741 -3159.8434 C -481.4741 -3160.0674 -481.2981 -3160.2434 -481.0741 -3160.2434 L -475.4741 -3160.2434 C -475.2501 -3160.2434 -475.0741 -3160.0674 -475.0741 -3159.8434 C -475.0741 -3159.6194 -475.2501 -3159.4434 -475.4741 -3159.4434 Z M -481.0741 -3157.8434 C -481.2981 -3157.8434 -481.4741 -3158.0194 -481.4741 -3158.2434 C -481.4741 -3158.4674 -481.2981 -3158.6434 -481.0741 -3158.6434 L -475.4741 -3158.6434 C -475.2501 -3158.6434 -475.0741 -3158.4674 -475.0741 -3158.2434 C -475.0741 -3158.0194 -475.2501 -3157.8434 -475.4741 -3157.8434 Z M -481.0741 -3156.2434 C -481.2981 -3156.2434 -481.4741 -3156.4194 -481.4741 -3156.6434 C -481.4741 -3156.8674 -481.2981 -3157.0434 -481.0741 -3157.0434 L -477.0741 -3157.0434 C -476.8501 -3157.0434 -476.6741 -3156.8674 -476.6741 -3156.6434 C -476.6741 -3156.4194 -476.8501 -3156.2434 -477.0741 -3156.2434 Z M -483.0741 -3152.2434 L -483.0741 -3149.0274 L -473.4741 -3149.0274 L -473.4741 -3152.2434 L -483.0741 -3152.2434 Z" fill="#c0e0ff"/>
      </g>
    </g>
  </g>
</svg>

<svg height="25" viewBox="-490.774 -3167.932 25 25" width="25" xmlns="http://www.w3.org/2000/svg"><g fill="none"><path d="m-486.4341-3167.4315h16.32c2.1208 0 3.84 1.7192 3.84 3.84v16.32c0 2.1208-1.7192 3.84-3.84 3.84h-16.32c-2.1208 0-3.84-1.7192-3.84-3.84v-16.32c0-2.1208 1.7192-3.84 3.84-3.84z" fill="#666"/><path d="m-486.4341-3167.4315h16.32c2.1208 0 3.84 1.7192 3.84 3.84v16.32c0 2.1208-1.7192 3.84-3.84 3.84h-16.32c-2.1208 0-3.84-1.7192-3.84-3.84v-16.32c0-2.1208 1.7192-3.84 3.84-3.84z" stroke="#fff" stroke-linecap="round" stroke-linejoin="round" stroke-width=".25"/><path d="m-472.6741-3150.6274v2.008c0 .224-.176.4-.4.4h-10.4c-.224 0-.4-.176-.4-.4v-2.016h-1.2c-.664 0-1.2-.536-1.2-1.2v-4c0-1.104.896-2 2-2h.4v-4.408c0-.216.176-.4.4-.4h10.4c.224-.008.4.168.4.392v4.408h.4c1.104 0 2 .896 2 2v4.016c0 .664-.536 1.2-1.2 1.2zm0-.8h1.2c.224 0 .4-.176.4-.4v-4.016c0-.664-.536-1.2-1.2-1.2h-.4v2.808c0 .224-.176.4-.4.4h-10.4c-.224 0-.4-.176-.4-.4v-2.808h-.4c-.664 0-1.2.536-1.2 1.2v4c0 .224.176.4.4.4h1.2v-1.2c0-.224.176-.4.4-.4h10.4c.224 0 .4.176.4.4zm-.8-6.016v-4.408h-9.6v7.216h9.6zm-7.6-2c-.224 0-.4-.176-.4-.4s.176-.4.4-.4h5.6c.224 0 .4.176.4.4s-.176.4-.4.4zm0 1.6c-.224 0-.4-.176-.4-.4s.176-.4.4-.4h5.6c.224 0 .4.176.4.4s-.176.4-.4.4zm0 1.6c-.224 0-.4-.176-.4-.4s.176-.4.4-.4h4c.224 0 .4.176.4.4s-.176.4-.4.4zm-2 4v3.216h9.6v-3.216z" fill="#c0e0ff"/></g></svg>
